contributed-vectors/drone_radar.svg

<?xml version="1.0" encoding="UTF-8" standalone="no"?>
<svg
   xmlns:dc="http://purl.org/dc/elements/1.1/"
   xmlns:cc="http://creativecommons.org/ns#"
   xmlns:rdf="http://www.w3.org/1999/02/22-rdf-syntax-ns#"
   xmlns:svg="http://www.w3.org/2000/svg"
   xmlns="http://www.w3.org/2000/svg"
   xmlns:sodipodi="http://sodipodi.sourceforge.net/DTD/sodipodi-0.dtd"
   xmlns:inkscape="http://www.inkscape.org/namespaces/inkscape"
   width="100%"
   height="100%"
   viewBox="0 0 192 192"
   version="1.1"
   xml:space="preserve"
   style="fill-rule:evenodd;clip-rule:evenodd;stroke-linejoin:round;stroke-miterlimit:2;"
   id="svg31"
   sodipodi:docname="drone_radar.svg"
   inkscape:version="1.0.1 (3bc2e813f5, 2020-09-07)"
   inkscape:export-filename="/home/jphilippe/github/delta/android/contributed-vectors/drone_radar.png"
   inkscape:export-xdpi="96"
   inkscape:export-ydpi="96"><metadata
   id="metadata37"><rdf:RDF><cc:Work
       rdf:about=""><dc:format>image/svg+xml</dc:format><dc:type
         rdf:resource="http://purl.org/dc/dcmitype/StillImage" /></cc:Work></rdf:RDF></metadata><defs
   id="defs35" /><sodipodi:namedview
   pagecolor="#ffffff"
   bordercolor="#666666"
   borderopacity="1"
   objecttolerance="10"
   gridtolerance="10"
   guidetolerance="10"
   inkscape:pageopacity="0"
   inkscape:pageshadow="2"
   inkscape:window-width="1884"
   inkscape:window-height="1052"
   id="namedview33"
   showgrid="false"
   inkscape:zoom="3.3697917"
   inkscape:cx="96"
   inkscape:cy="96"
   inkscape:window-x="36"
   inkscape:window-y="0"
   inkscape:window-maximized="1"
   inkscape:current-layer="svg31" />
    <g
   transform="matrix(0.99346405,0,0,0.99346405,8.5751636,8.5751636)"
   id="g4"
   style="fill:#56595b;fill-opacity:1">
            <path
   d="m 164.5,21.5 c 0,-5.519 -4.481,-10 -10,-10 h -133 c -5.519,0 -10,4.481 -10,10 v 133 c 0,5.519 4.481,10 10,10 h 133 c 5.519,0 10,-4.481 10,-10 z"
   style="fill:#56595b;fill-opacity:1"
   id="path2" />
        </g><g
   transform="matrix(0.77980272,0,0,0.77980272,21.139007,21.139007)"
   id="g28">
            <g
   transform="translate(3.35971,11.4317)"
   id="g22">
                <g
   transform="translate(-3.35971,-11.4317)"
   id="g8">
                    <path
   d="m 107.59,73.168 c -1.193,1.194 -2.945,1.634 -4.561,1.147 -1.615,-0.487 -2.832,-1.823 -3.166,-3.476 -0.31,-1.799 -0.503,-3.649 -0.503,-5.544 0,-15.093 12.253,-27.346 27.345,-27.346 15.093,0 27.346,12.253 27.346,27.346 0,15.092 -12.253,27.345 -27.346,27.345 -1.895,0 -3.745,-0.193 -5.532,-0.561 -1.632,-0.33 -2.951,-1.531 -3.432,-3.126 -0.481,-1.594 -0.046,-3.324 1.132,-4.502 -0.041,-0.041 -0.041,-0.041 -0.04,-0.041 0.619,-0.619 1.53,-0.845 2.366,-0.588 1.744,0.527 3.593,0.805 5.506,0.805 10.67,0 19.333,-8.662 19.333,-19.332 0,-10.67 -8.663,-19.333 -19.333,-19.333 -10.67,0 -19.332,8.663 -19.332,19.333 0,1.913 0.278,3.762 0.797,5.508 0.257,0.834 0.031,1.741 -0.586,2.358 0.006,0.007 0.006,0.007 0.006,0.007 z"
   style="fill:#98dc9a"
   id="path6" />
                </g>
                <g
   transform="translate(-3.35971,-11.4317)"
   id="g12">
                    <path
   d="m 73.168,84.411 c 1.193,1.192 1.634,2.945 1.147,4.56 -0.488,1.615 -1.824,2.832 -3.477,3.166 -1.798,0.31 -3.648,0.503 -5.543,0.503 -15.093,0 -27.346,-12.253 -27.346,-27.345 0,-15.093 12.253,-27.346 27.346,-27.346 15.092,0 27.345,12.253 27.345,27.346 0,1.895 -0.193,3.745 -0.56,5.531 -0.331,1.633 -1.532,2.951 -3.126,3.432 -1.595,0.481 -3.325,0.047 -4.503,-1.131 -0.041,0.04 -0.041,0.04 -0.041,0.04 -0.619,-0.619 -0.845,-1.53 -0.587,-2.367 0.526,-1.744 0.804,-3.592 0.804,-5.505 0,-10.67 -8.662,-19.333 -19.332,-19.333 -10.67,0 -19.333,8.663 -19.333,19.333 0,10.67 8.663,19.332 19.333,19.332 1.913,0 3.761,-0.278 5.507,-0.797 0.834,-0.257 1.742,-0.031 2.359,0.586 0.006,-0.006 0.006,-0.006 0.007,-0.005 z"
   style="fill:#98dc9a"
   id="path10" />
                </g>
                <g
   transform="translate(-3.35971,-11.4317)"
   id="g16">
                    <path
   d="m 84.41,118.832 c 1.193,-1.194 2.945,-1.634 4.561,-1.147 1.615,0.487 2.832,1.823 3.166,3.476 0.31,1.799 0.503,3.649 0.503,5.544 0,15.093 -12.253,27.346 -27.345,27.346 -15.093,0 -27.346,-12.253 -27.346,-27.346 0,-15.092 12.253,-27.345 27.346,-27.345 1.895,0 3.745,0.193 5.532,0.561 1.632,0.33 2.951,1.531 3.432,3.126 0.481,1.594 0.046,3.324 -1.132,4.502 0.041,0.041 0.041,0.041 0.04,0.041 -0.619,0.619 -1.53,0.845 -2.366,0.588 -1.744,-0.527 -3.593,-0.805 -5.506,-0.805 -10.67,0 -19.333,8.662 -19.333,19.332 0,10.67 8.663,19.333 19.333,19.333 10.67,0 19.332,-8.663 19.332,-19.333 0,-1.913 -0.278,-3.762 -0.797,-5.508 -0.257,-0.834 -0.031,-1.741 0.586,-2.358 -0.006,-0.007 -0.006,-0.007 -0.006,-0.007 z"
   style="fill:#98dc9a"
   id="path14" />
                </g>
                <g
   transform="translate(-3.35971,-11.4317)"
   id="g20">
                    <path
   d="m 118.832,107.589 c -1.193,-1.192 -1.634,-2.945 -1.147,-4.56 0.488,-1.615 1.824,-2.832 3.477,-3.166 1.798,-0.31 3.648,-0.503 5.543,-0.503 15.093,0 27.346,12.253 27.346,27.345 0,15.093 -12.253,27.346 -27.346,27.346 -15.092,0 -27.345,-12.253 -27.345,-27.346 0,-1.895 0.193,-3.745 0.56,-5.531 0.331,-1.633 1.532,-2.951 3.126,-3.432 1.595,-0.481 3.325,-0.047 4.503,1.131 0.041,-0.04 0.041,-0.04 0.041,-0.04 0.619,0.619 0.845,1.53 0.587,2.367 -0.526,1.744 -0.804,3.592 -0.804,5.505 0,10.67 8.662,19.333 19.332,19.333 10.67,0 19.333,-8.663 19.333,-19.333 0,-10.67 -8.663,-19.332 -19.333,-19.332 -1.913,0 -3.761,0.278 -5.507,0.797 -0.834,0.257 -1.742,0.031 -2.359,-0.586 -0.006,0.006 -0.006,0.006 -0.007,0.005 z"
   style="fill:#98dc9a"
   id="path18" />
                </g>
            </g>
            <g
   transform="matrix(1.15598,0,0,1.15598,-14.5606,-14.9742)"
   id="g26">
                <path
   d="M 96,123.542 H 68.458 v -55.084 55.084 z m 0,-15.122 c -4.265,0 -8.529,1.316 -12.153,3.947 -2.63,1.91 -5.339,3.877 -7.738,5.619 -0.597,0.434 -1.421,0.369 -1.942,-0.153 -0.522,-0.521 -0.587,-1.345 -0.153,-1.942 1.742,-2.399 3.709,-5.108 5.619,-7.738 5.263,-7.247 5.263,-17.059 0,-24.306 -1.941,-2.672 -3.941,-5.427 -5.703,-7.854 -0.427,-0.588 -0.363,-1.399 0.15,-1.913 0.514,-0.513 1.325,-0.577 1.913,-0.15 2.427,1.762 5.182,3.762 7.854,5.703 7.247,5.263 17.059,5.263 24.306,0 2.612,-1.897 5.304,-3.851 7.69,-5.585 0.601,-0.436 1.43,-0.37 1.955,0.154 0.524,0.525 0.59,1.354 0.154,1.955 -1.734,2.386 -3.688,5.078 -5.585,7.69 -2.631,3.624 -3.947,7.888 -3.947,12.153 0,4.265 1.316,8.529 3.947,12.153 1.897,2.612 3.851,5.304 5.585,7.69 0.436,0.601 0.37,1.43 -0.154,1.955 -0.525,0.524 -1.354,0.59 -1.955,0.154 -2.386,-1.734 -5.078,-3.688 -7.69,-5.585 C 104.529,109.736 100.265,108.42 96,108.42 Z M 108.42,96 H 96 Z"
   style="fill:#98dc9a"
   id="path24" />
            </g>
        </g>
</svg>

<?xml version="1.0" encoding="UTF-8" standalone="no"?>
<!DOCTYPE svg PUBLIC "-//W3C//DTD SVG 1.1//EN" "http://www.w3.org/Graphics/SVG/1.1/DTD/svg11.dtd">
<svg width="100%" height="100%" viewBox="0 0 192 192" version="1.1" xmlns="http://www.w3.org/2000/svg" xmlns:xlink="http://www.w3.org/1999/xlink" xml:space="preserve" xmlns:serif="http://www.serif.com/" style="fill-rule:evenodd;clip-rule:evenodd;stroke-linejoin:round;stroke-miterlimit:2;">
    <g id="Layer1">
        <g transform="matrix(1,0,0,1,8,8)">
            <path d="M164.5,21.5C164.5,15.981 160.019,11.5 154.5,11.5L21.5,11.5C15.981,11.5 11.5,15.981 11.5,21.5L11.5,154.5C11.5,160.019 15.981,164.5 21.5,164.5L154.5,164.5C160.019,164.5 164.5,160.019 164.5,154.5L164.5,21.5Z" style="fill:rgb(74,74,74);"/>
        </g>
        <g transform="matrix(0.784933,0,0,0.784933,20.6465,20.6465)">
            <g transform="matrix(1,0,0,1,3.35971,11.4317)">
                <g transform="matrix(1,0,0,1,-3.35971,-11.4317)">
                    <path d="M107.59,73.168C106.397,74.362 104.645,74.802 103.029,74.315C101.414,73.828 100.197,72.492 99.863,70.839C99.553,69.04 99.36,67.19 99.36,65.295C99.36,50.202 111.613,37.949 126.705,37.949C141.798,37.949 154.051,50.202 154.051,65.295C154.051,80.387 141.798,92.64 126.705,92.64C124.81,92.64 122.96,92.447 121.173,92.079C119.541,91.749 118.222,90.548 117.741,88.953C117.26,87.359 117.695,85.629 118.873,84.451C118.832,84.41 118.832,84.41 118.833,84.41C119.452,83.791 120.363,83.565 121.199,83.822C122.943,84.349 124.792,84.627 126.705,84.627C137.375,84.627 146.038,75.965 146.038,65.295C146.038,54.625 137.375,45.962 126.705,45.962C116.035,45.962 107.373,54.625 107.373,65.295C107.373,67.208 107.651,69.057 108.17,70.803C108.427,71.637 108.201,72.544 107.584,73.161C107.59,73.168 107.59,73.168 107.59,73.168Z" style="fill:rgb(152,220,154);"/>
                </g>
                <g transform="matrix(1,0,0,1,-3.35971,-11.4317)">
                    <path d="M73.168,84.411C74.361,85.603 74.802,87.356 74.315,88.971C73.827,90.586 72.491,91.803 70.838,92.137C69.04,92.447 67.19,92.64 65.295,92.64C50.202,92.64 37.949,80.387 37.949,65.295C37.949,50.202 50.202,37.949 65.295,37.949C80.387,37.949 92.64,50.202 92.64,65.295C92.64,67.19 92.447,69.04 92.08,70.826C91.749,72.459 90.548,73.777 88.954,74.258C87.359,74.739 85.629,74.305 84.451,73.127C84.41,73.167 84.41,73.167 84.41,73.167C83.791,72.548 83.565,71.637 83.823,70.8C84.349,69.056 84.627,67.208 84.627,65.295C84.627,54.625 75.965,45.962 65.295,45.962C54.625,45.962 45.962,54.625 45.962,65.295C45.962,75.965 54.625,84.627 65.295,84.627C67.208,84.627 69.056,84.349 70.802,83.83C71.636,83.573 72.544,83.799 73.161,84.416C73.167,84.41 73.167,84.41 73.168,84.411Z" style="fill:rgb(152,220,154);"/>
                </g>
                <g transform="matrix(1,0,0,1,-3.35971,-11.4317)">
                    <path d="M84.41,118.832C85.603,117.638 87.355,117.198 88.971,117.685C90.586,118.172 91.803,119.508 92.137,121.161C92.447,122.96 92.64,124.81 92.64,126.705C92.64,141.798 80.387,154.051 65.295,154.051C50.202,154.051 37.949,141.798 37.949,126.705C37.949,111.613 50.202,99.36 65.295,99.36C67.19,99.36 69.04,99.553 70.827,99.921C72.459,100.251 73.778,101.452 74.259,103.047C74.74,104.641 74.305,106.371 73.127,107.549C73.168,107.59 73.168,107.59 73.167,107.59C72.548,108.209 71.637,108.435 70.801,108.178C69.057,107.651 67.208,107.373 65.295,107.373C54.625,107.373 45.962,116.035 45.962,126.705C45.962,137.375 54.625,146.038 65.295,146.038C75.965,146.038 84.627,137.375 84.627,126.705C84.627,124.792 84.349,122.943 83.83,121.197C83.573,120.363 83.799,119.456 84.416,118.839C84.41,118.832 84.41,118.832 84.41,118.832Z" style="fill:rgb(152,220,154);"/>
                </g>
                <g transform="matrix(1,0,0,1,-3.35971,-11.4317)">
                    <path d="M118.832,107.589C117.639,106.397 117.198,104.644 117.685,103.029C118.173,101.414 119.509,100.197 121.162,99.863C122.96,99.553 124.81,99.36 126.705,99.36C141.798,99.36 154.051,111.613 154.051,126.705C154.051,141.798 141.798,154.051 126.705,154.051C111.613,154.051 99.36,141.798 99.36,126.705C99.36,124.81 99.553,122.96 99.92,121.174C100.251,119.541 101.452,118.223 103.046,117.742C104.641,117.261 106.371,117.695 107.549,118.873C107.59,118.833 107.59,118.833 107.59,118.833C108.209,119.452 108.435,120.363 108.177,121.2C107.651,122.944 107.373,124.792 107.373,126.705C107.373,137.375 116.035,146.038 126.705,146.038C137.375,146.038 146.038,137.375 146.038,126.705C146.038,116.035 137.375,107.373 126.705,107.373C124.792,107.373 122.944,107.651 121.198,108.17C120.364,108.427 119.456,108.201 118.839,107.584C118.833,107.59 118.833,107.59 118.832,107.589Z" style="fill:rgb(152,220,154);"/>
                </g>
            </g>
            <g transform="matrix(1.15598,0,0,1.15598,-14.5606,-14.9742)">
                <path d="M96,123.542L68.458,123.542L68.458,68.458L68.458,123.542L96,123.542ZM96,108.42C91.735,108.42 87.471,109.736 83.847,112.367C81.217,114.277 78.508,116.244 76.109,117.986C75.512,118.42 74.688,118.355 74.167,117.833C73.645,117.312 73.58,116.488 74.014,115.891C75.756,113.492 77.723,110.783 79.633,108.153C84.896,100.906 84.896,91.094 79.633,83.847C77.692,81.175 75.692,78.42 73.93,75.993C73.503,75.405 73.567,74.594 74.08,74.08C74.594,73.567 75.405,73.503 75.993,73.93C78.42,75.692 81.175,77.692 83.847,79.633C91.094,84.896 100.906,84.896 108.153,79.633C110.765,77.736 113.457,75.782 115.843,74.048C116.444,73.612 117.273,73.678 117.798,74.202C118.322,74.727 118.388,75.556 117.952,76.157C116.218,78.543 114.264,81.235 112.367,83.847C109.736,87.471 108.42,91.735 108.42,96C108.42,100.265 109.736,104.529 112.367,108.153C114.264,110.765 116.218,113.457 117.952,115.843C118.388,116.444 118.322,117.273 117.798,117.798C117.273,118.322 116.444,118.388 115.843,117.952C113.457,116.218 110.765,114.264 108.153,112.367C104.529,109.736 100.265,108.42 96,108.42ZM108.42,96L96,96L108.42,96Z" style="fill:rgb(152,220,154);"/>
            </g>
        </g>
    </g>
</svg>
